X: 5
T:Hole in the Wall
% Nottingham Music Database
S:Playford
P:AAB
M:3/2
K:Bb
%%MIDI gchord fzczcz
P:A
B2c2||\
P:segno
"Bb"d3edef2"F/a"c2f2|"Gm"B3cBcd2"Dm/f"A2d2|"Eb"G3AGAB2"Bb/d"F2d2|\
"Eb"B4-"F7"B2A2"Bb"B4:|
P:B
"Gm"b3agab2"Cm"a2g2|"D"^f3gfga2"D7"d2a2|"Gm"b3agab2"Cm"a2g2|\
"Gm/d"g4-"D7"g2^f2"Gm"g4|
"Eb"G3AGAB2"F"ABc2|"Gm"B3cBcd2"F/a"cde2|"Bb"d3edef2"F/a"F2f2|"Gm"d4-"F7"d2cd\
P:D.S.
"Bb"B2||<end>
<start>
